X:1162
T:To Rodney we will go,
T:Quick Step.
M:2/4
L:1/8
Q:1/4=88
I: :: :|
Z:Jack Campin * www.campin.me.uk * 2009
K:G
D|GBBB|cBAG|Bddd|d3  B   |cecA|BdBG|cA`GF   |G3:|
c|Bdge|fddc|Bdge|d2 de/f/|gfed|edcB|cd ef/g/|d3
B|GBBB|cBAG|GBdd|d3  B   |cecA|BdBG|cA`GF   |G3|]

